Newaita-dark/actions/16/edit-table-delete-row.svg

<svg height="16" viewBox="0 0 16 16" width="16" xmlns="http://www.w3.org/2000/svg"><path d="m6.285156 14.015625h-.664062v-3.96875h.664062zm0 0" fill="#e0e0e0"/><path d="m10.253906 14.015625h-.660156v-3.96875h.660156zm0 0" fill="#e0e0e0"/><path d="m13.890625 9.71875v.660156h-11.90625v-.660156zm0 0" fill="#f44336"/><path d="m10.253906 6.078125h-.660156v-3.96875h.660156zm0 0" fill="#e0e0e0"/><path d="m6.285156 6.078125h-.664062v-3.96875h.664062zm0 0" fill="#e0e0e0"/><path d="m13.890625 5.746094v.664062h-11.90625v-.664062zm0 0" fill="#f44336"/><path d="m14.554688 2.769531c0-.730469-.589844-1.320312-1.324219-1.320312h-10.585938c-.730469 0-1.320312.589843-1.320312 1.320312v10.585938c0 .734375.589843 1.324219 1.320312 1.324219h10.585938c.734375 0 1.324219-.589844 1.324219-1.324219zm-1.324219.664063v9.261718c0 .363282-.296875.660157-.660157.660157h-9.261718c-.367188 0-.664063-.296875-.664063-.660157v-9.261718c0-.367188.296875-.664063.664063-.664063h9.261718c.363282 0 .660157.296875.660157.664063zm0 0" fill="#e0e0e0"/><g fill="#f44336"><path d="m4.886719 10.214844-.636719.171875-1.199219-4.472657.636719-.171874zm0 0"/><path d="m7.253906 10.214844-.640625.171875-1.195312-4.472657.636719-.171874zm0 0"/><path d="m9.921875 10.214844-.636719.171875-1.199218-4.472657.636718-.171874zm0 0"/><path d="m12.570312 10.214844-.640624.171875-1.199219-4.472657.640625-.171874zm0 0"/></g></svg>

<?xml version="1.0" encoding="UTF-8"?>
<svg xmlns="http://www.w3.org/2000/svg" xmlns:xlink="http://www.w3.org/1999/xlink" width="16px" height="16px" viewBox="0 0 16 16" version="1.1">
<g id="surface1">
<path style=" stroke:none;fill-rule:nonzero;fill:rgb(87.843138%,87.843138%,87.843138%);fill-opacity:1;" d="M 6.285156 14.015625 L 5.621094 14.015625 L 5.621094 10.046875 L 6.285156 10.046875 Z M 6.285156 14.015625 "/>
<path style=" stroke:none;fill-rule:nonzero;fill:rgb(87.843138%,87.843138%,87.843138%);fill-opacity:1;" d="M 10.253906 14.015625 L 9.59375 14.015625 L 9.59375 10.046875 L 10.253906 10.046875 Z M 10.253906 14.015625 "/>
<path style=" stroke:none;fill-rule:nonzero;fill:rgb(95.686275%,26.274511%,21.176471%);fill-opacity:1;" d="M 13.890625 9.71875 L 13.890625 10.378906 L 1.984375 10.378906 L 1.984375 9.71875 Z M 13.890625 9.71875 "/>
<path style=" stroke:none;fill-rule:nonzero;fill:rgb(87.843138%,87.843138%,87.843138%);fill-opacity:1;" d="M 10.253906 6.078125 L 9.59375 6.078125 L 9.59375 2.109375 L 10.253906 2.109375 Z M 10.253906 6.078125 "/>
<path style=" stroke:none;fill-rule:nonzero;fill:rgb(87.843138%,87.843138%,87.843138%);fill-opacity:1;" d="M 6.285156 6.078125 L 5.621094 6.078125 L 5.621094 2.109375 L 6.285156 2.109375 Z M 6.285156 6.078125 "/>
<path style=" stroke:none;fill-rule:nonzero;fill:rgb(95.686275%,26.274511%,21.176471%);fill-opacity:1;" d="M 13.890625 5.746094 L 13.890625 6.410156 L 1.984375 6.410156 L 1.984375 5.746094 Z M 13.890625 5.746094 "/>
<path style=" stroke:none;fill-rule:nonzero;fill:rgb(87.843138%,87.843138%,87.843138%);fill-opacity:1;" d="M 14.554688 2.769531 C 14.554688 2.039062 13.964844 1.449219 13.230469 1.449219 L 2.644531 1.449219 C 1.914062 1.449219 1.324219 2.039062 1.324219 2.769531 L 1.324219 13.355469 C 1.324219 14.089844 1.914062 14.679688 2.644531 14.679688 L 13.230469 14.679688 C 13.964844 14.679688 14.554688 14.089844 14.554688 13.355469 Z M 13.230469 3.433594 L 13.230469 12.695312 C 13.230469 13.058594 12.933594 13.355469 12.570312 13.355469 L 3.308594 13.355469 C 2.941406 13.355469 2.644531 13.058594 2.644531 12.695312 L 2.644531 3.433594 C 2.644531 3.066406 2.941406 2.769531 3.308594 2.769531 L 12.570312 2.769531 C 12.933594 2.769531 13.230469 3.066406 13.230469 3.433594 Z M 13.230469 3.433594 "/>
<path style=" stroke:none;fill-rule:nonzero;fill:rgb(95.686275%,26.274511%,21.176471%);fill-opacity:1;" d="M 4.886719 10.214844 L 4.25 10.386719 L 3.050781 5.914062 L 3.6875 5.742188 Z M 4.886719 10.214844 "/>
<path style=" stroke:none;fill-rule:nonzero;fill:rgb(95.686275%,26.274511%,21.176471%);fill-opacity:1;" d="M 7.253906 10.214844 L 6.613281 10.386719 L 5.417969 5.914062 L 6.054688 5.742188 Z M 7.253906 10.214844 "/>
<path style=" stroke:none;fill-rule:nonzero;fill:rgb(95.686275%,26.274511%,21.176471%);fill-opacity:1;" d="M 9.921875 10.214844 L 9.285156 10.386719 L 8.085938 5.914062 L 8.722656 5.742188 Z M 9.921875 10.214844 "/>
<path style=" stroke:none;fill-rule:nonzero;fill:rgb(95.686275%,26.274511%,21.176471%);fill-opacity:1;" d="M 12.570312 10.214844 L 11.929688 10.386719 L 10.730469 5.914062 L 11.371094 5.742188 Z M 12.570312 10.214844 "/>
</g>
</svg>
